images/themes/default/algorithms/mAlgorithmMeanCoordinates.svg

<svg height="24" viewBox="0 0 6.35 6.35" width="24" xmlns="http://www.w3.org/2000/svg"><g stroke-linecap="round" stroke-width=".265"><rect fill="#8cbe8c" height="1.323" rx=".827" stroke="#4b4c4b" width="1.323" x="2.514" y="2.514"/><path d="m1.19 2.778h-.792v-1.323c-.004-.397.131-.532.528-.529h.794v-.53l1.058.927-1.058.926v-.53h-.53zm2.646-1.323v-.794h1.324c.397-.002.532.133.53.53v.793h.529l-.926 1.059-.926-1.059h.529v-.529zm1.324 2.381h.793v1.324c.003.397-.132.532-.53.53h-.793v.529l-1.058-.926 1.058-.926v.529h.53zm-2.646 1.324v.793h-1.324c-.397.003-.532-.132-.53-.53v-.793h-.528l.926-1.058.926 1.058h-.529v.53z" fill="#7c96a8" stroke="#517083" stroke-linejoin="round"/></g></svg>

<svg xmlns="http://www.w3.org/2000/svg" width="24" height="24" viewBox="0 0 6.35 6.35"><rect y="2.514" x="2.514" width="1.323" rx=".827" height="1.323" ry=".827" fill="#8cbe8c" stroke="#4b4c4b" stroke-width=".265" stroke-linecap="round"/><path d="M1.19 2.778H.398V1.455C.394 1.058.529.923.926.926h.794v-.53l1.058.927-1.058.926v-.53h-.53zM3.836 1.455V.661H5.16c.397-.002.532.133.53.53v.793h.529l-.926 1.059-.926-1.059h.529v-.529zM5.16 3.836h.793V5.16c.003.397-.132.532-.53.53H4.63v.529l-1.058-.926 1.058-.926v.529h.53zM2.514 5.16v.793H1.19c-.397.003-.532-.132-.53-.53V4.63H.132l.926-1.058.926 1.058h-.529v.53z" fill="#7c96a8" stroke="#517083" stroke-width=".265" stroke-linecap="round" stroke-linejoin="round"/></svg>
